!!!COM: Miyono, Atansasio Ndongo
!!!CDT: d. 1969 (birth date unknown)
!!!OTL: National Anthem, Equatorial Guinea
!!!ENC: Davis, Matthew J.
!!Vocal Line Only
**kern
*clefG2
*k[f#c#g#]
*A:
*M4/4
=1-
8.e
16e
=2
4c#
8.e
16e
4a
8.a
16b
=3
2cc#
4a
8.a
16cc#
=4
4ee
4ee
8.ee
16ee
8.a
16cc#
=5
2.b
4r
=6
8.b
16b
8.b
16b
2b
=7
8.cc#
16cc#
8.cc#
16cc#
[4cc#
8.cc#]
16cc#
=8
4ee
4dd
4cc#
4b
=9
2.a
8.e
16e
=10
4c#
8.e
16e
4a
8.a
16b
=11
2cc#
4a
8.a
16cc#
=12
8.e
16e
8.e
16e
8.e
16e
8.a
16cc#
=13
2.b
4r
=14
8.b
16b
8.b
16b
2b
=15
8.cc#
16cc#
8.cc#
16cc#
[4cc#
8.cc#]
16cc#
=16
4ee
4dd
4cc#
4b
=17
2/a
6e
6a
6b
=18
4cc#
2cc#
6cc#
6a
6b
=19
4cc#
2cc#
6e
6a
6b
=20
4cc#
4cc#
8.cc#
16ee
8.dd
16cc#
=21
2.b
6f#
6b
6cc#
=22
4dd
2dd
6dd
6b
6cc#
=23
4dd
2dd
6b
6b
6cc#
=24
4dd
4dd
8.dd
16dd
8.cc#
16b#
=25
2.cc#
6e
6a
6b
=26
4cc#
2cc#
6cc#
6a
6b
=27
4cc#
2cc#
6e
6a
6b
=28
4cc#
4cc#
8.cc#
16ee
8.dd
16cc#
=29
2.b
6b
6b
6cc#
=30
4dd
2dd
6dd
6cc#
6b
=31
4cc#
[4cc#
8.cc#]
16e
8.a
16cc#
=32
4ee
4ee
8.r
16e
8.a
16cc#
=33
4ee
4ee
4ee
8.ee
16dd
=34
4cc#
4cc#
4b
4b
=35
2a
8.r
16e
8.a
16cc#
=36
4ee
4ee
8.r
16e
8.a
16cc#
=37
4ee
4ee
4ee
8.ee
16dd
=38
4cc#
4cc#
4b
4b
=39
2.a
4r
==|!
*-
